assets/img/logos_facebook.svg

<svg xmlns="http://www.w3.org/2000/svg" width="23" height="23" viewBox="0 0 23 23" fill="none">
  <g clip-path="url(#clip0_1477_9620)">
    <path d="M23 11.5C23 5.14877 17.8512 0 11.5 0C5.14877 0 0 5.14877 0 11.5C0 17.2399 4.20541 21.9976 9.70312 22.8603V14.8242H6.7832V11.5H9.70312V8.96641C9.70312 6.08422 11.42 4.49219 14.0469 4.49219C15.3051 4.49219 16.6211 4.7168 16.6211 4.7168V7.54688H15.171C13.7424 7.54688 13.2969 8.43336 13.2969 9.34285V11.5H16.4863L15.9765 14.8242H13.2969V22.8603C18.7946 21.9976 23 17.24 23 11.5Z" fill="#1877F2"/>
    <path d="M15.9765 14.8242L16.4863 11.5H13.2969V9.34285C13.2969 8.43327 13.7424 7.54688 15.171 7.54688H16.6211V4.7168C16.6211 4.7168 15.3051 4.49219 14.0468 4.49219C11.42 4.49219 9.70312 6.08422 9.70312 8.96641V11.5H6.7832V14.8242H9.70312V22.8603C10.2975 22.9534 10.8983 23.0001 11.5 23C12.1017 23.0001 12.7025 22.9534 13.2969 22.8603V14.8242H15.9765Z" fill="white"/>
  </g>
  <defs>
    <clipPath id="clip0_1477_9620">
      <rect width="23" height="23" fill="white"/>
    </clipPath>
  </defs>
</svg>

<svg xmlns="http://www.w3.org/2000/svg" width="23" height="23" fill="none"><g clip-path="url(#a)"><path fill="#1877F2" d="M23 11.5C23 5.149 17.851 0 11.5 0S0 5.149 0 11.5c0 5.74 4.205 10.498 9.703 11.36v-8.036h-2.92V11.5h2.92V8.966c0-2.882 1.717-4.474 4.344-4.474 1.258 0 2.574.225 2.574.225v2.83h-1.45c-1.429 0-1.874.886-1.874 1.796V11.5h3.19l-.51 3.324h-2.68v8.036C18.795 21.998 23 17.24 23 11.5"/><path fill="#fff" d="m15.977 14.824.51-3.324h-3.19V9.343c0-.91.445-1.796 1.874-1.796h1.45v-2.83s-1.316-.225-2.574-.225c-2.627 0-4.344 1.592-4.344 4.474V11.5h-2.92v3.324h2.92v8.036a11.6 11.6 0 0 0 3.594 0v-8.036z"/></g><defs><clipPath id="a"><path fill="#fff" d="M0 0h23v23H0z"/></clipPath></defs></svg>
